X:3383
T:Schottis ur Alfred Anderssons notbok
B:[[http://www.samlingarna.sormlandsspel.se/?page_id=374|Alfred Anderssons notbok]] (pdf) nr 106 sid 90
O:Lotorp, Östergötland
R:Schottis
L:1/16
M:2/4
Z:Nils L
K:G
G2GA B2Bc | d2de d2B2 | c2cd c2B2 | d2dB A2D2 |
G2GA B2Bc | d2de d2G2 | c2cd c2BA | A2G2G2 z2 ::
G2cc c2e2 | G2BB B2d2 | D2AF D2AF | G2Bd g4 |
G2cc c2e2 | G2BB B2d2 | DAFA DAFA | G2g2 z4 :|
(:musicend:)
(:music:)
